X: 1
T: The First of April  (F)
M: 6/8
L: 1/8
R: jig
Z: alf.warnock@rogers.com
K: F
|: "F"cAF "C"GEC |  "F"cAF "C"GEC | "F"cAF    cAF | "C7"GAE  "F"F3 :|
|: "F"FAc    fcA | "Bb"dcB "F"AGF | "F"FAc    fcA | "G7"cd=B "C"c3  |
|  "F"cAF "C"GEC |  "F"cAF "C"GEC | "C"CGB "F"AGF | "C7"GFE  "F"F3 :|

%%sep 1 1 500
%%sep 1 1 500
